src/pos-icons/notification-clear-all.svg

<svg height="24" viewBox="0 0 24 24" width="24" xmlns="http://www.w3.org/2000/svg"><path d="m5 13h14v-2h-14m-2 6h14v-2h-14m4-8v2h14v-2"/></svg>

<?xml version="1.0" encoding="UTF-8"?><!DOCTYPE svg PUBLIC "-//W3C//DTD SVG 1.1//EN" "http://www.w3.org/Graphics/SVG/1.1/DTD/svg11.dtd"><svg xmlns="http://www.w3.org/2000/svg" xmlns:xlink="http://www.w3.org/1999/xlink" version="1.1" id="mdi-notification-clear-all" width="24" height="24" viewBox="0 0 24 24"><path d="M5,13H19V11H5M3,17H17V15H3M7,7V9H21V7" /></svg>
